X: 27636
T: Moonlight
R: polka
M: 2/4
K: Dmajor
A2|FG ^GA|f2 f2|FG ^GA|g2 g2|ca ca|Bg Bg|f4-|f2
A2|FG ^GA|f2 f2|FG ^GA|g2 g2|ca Bg|Af Ge|d4-|d2:|
ef|gd BG|DG Bg|fd AF|DF Ad|ec AE|CE Ac|dA FD|A,D FA|
gd BG|DG Bg|fd AF|DF Ad|ca Bg|Af Ge|d4-|d2:|

